;FLAVOR:Marlin
;TIME:2196
;Filament used: 1.5935m
;Layer height: 0.2
;MINX:99.501
;MINY:73.244
;MINZ:0.24
;MAXX:123.479
;MAXY:146.854
;MAXZ:12.89
;Generated with Cura_SteamEngine 4.10.0
M140 S60
M105
M190 S60
M104 S200
M105
M109 S200
M82 ;absolute extrusion mode
; Ender 3 Custom Start G-code
G92 E0 ; Reset Extruder
G28 ; Home all axes
G1 Z2.0 F3000 ; Move Z Axis up little to prevent scratching of Heat Bed
G1 X0.1 Y20 Z0.3 F5000.0 ; Move to start position
G1 X0.1 Y200.0 Z0.3 F1500.0 E15 ; Draw the first line
G1 X0.4 Y200.0 Z0.3 F5000.0 ; Move to side a little
G1 X0.4 Y20 Z0.3 F1500.0 E30 ; Draw the second line
G92 E0 ; Reset Extruder
G1 Z2.0 F3000 ; Move Z Axis up little to prevent scratching of Heat Bed
G1 X5 Y20 Z0.3 F5000.0 ; Move over to prevent blob squish
G92 E0
G92 E0
G1 F1500 E-6.5
;LAYER_COUNT:59
;LAYER:-6
M107
G0 F9750 X104.59 Y76.071 Z0.24
;TYPE:SUPPORT-INTERFACE
G1 F1500 E0
G1 F1462.5 X104.819 Y75.771 E0.03013
G1 X104.851 Y75.737 E0.03385
G1 X105.124 Y75.48 E0.06378
G1 X105.161 Y75.451 E0.06754
G1 X105.477 Y75.239 E0.09791
G1 X105.543 Y75.202 E0.10395
G1 X105.825 Y75.069 E0.12884
G1 X105.997 Y75.004 E0.14352
G1 X106.99 Y74.681 E0.22687
G1 X107.324 Y74.594 E0.25442
G1 X107.683 Y74.539 E0.28341
G1 X107.786 Y74.532 E0.29165
G1 X108.561 Y74.419 E0.35417
G1 X108.847 Y74.354 E0.37758
G1 X109.201 Y74.303 E0.40613
G1 X109.482 Y74.289 E0.42859
G1 X109.904 Y74.289 E0.46228
G1 X110.267 Y74.31 E0.4913
G1 X110.644 Y74.372 E0.5218
G1 X110.726 Y74.392 E0.52854
G1 X111.131 Y74.522 E0.56249
G1 X111.88 Y74.701 E0.62396
G1 X112.343 Y74.775 E0.66139
G1 X112.382 Y74.785 E0.6646
G1 X112.885 Y74.955 E0.70699
G1 X113.468 Y75.114 E0.75522
G1 X113.896 Y75.206 E0.79017
G1 X114.024 Y75.244 E0.80083
G1 X114.947 Y75.545 E0.87832
G1 X115.281 Y75.676 E0.90696
G1 X115.611 Y75.847 E0.93663
G1 X115.662 Y75.879 E0.94144
G1 X115.957 Y76.1 E0.97086
G1 X115.989 Y76.127 E0.9742
G1 X116.252 Y76.401 E1.00452
G1 X116.278 Y76.432 E1.00775
G1 X116.489 Y76.739 E1.03749
G1 X116.509 Y76.773 E1.04063
G1 X116.68 Y77.145 E1.07332
G1 X116.809 Y77.531 E1.1058
G1 X117.156 Y78.863 E1.21568
G1 X117.232 Y79.25 E1.24716
G1 X117.254 Y79.457 E1.26378
G1 X117.229 Y80.454 E1.34339
G1 X117.239 Y80.459 E1.34428
G1 X117.36 Y81.376 E1.41811
G1 X117.373 Y81.433 E1.42278
G1 X117.423 Y81.795 E1.45195
G1 X117.438 Y82.069 E1.47385
G1 X117.518 Y82.734 E1.52732
G1 X117.668 Y83.339 E1.57708
G1 X117.751 Y83.607 E1.59947
G1 X117.804 Y83.824 E1.6173
G1 X117.847 Y84.226 E1.64958
G1 X117.86 Y84.459 E1.6682
G1 X117.86 Y85.366 E1.7406
G1 X117.839 Y85.729 E1.76963
G1 X117.778 Y86.102 E1.7998
G1 X117.668 Y86.54 E1.83585
G1 X117.626 Y86.695 E1.84867
G1 X117.534 Y87.372 E1.9032
G1 X117.528 Y88.056 E1.95781
G1 X117.62 Y88.791 E2.01694
G1 X117.64 Y88.89 E2.025
G1 X117.684 Y89.239 E2.05308
G1 X117.69 Y89.42 E2.06753
G1 X117.69 Y90.08 E2.12022
G1 X117.733 Y90.754 E2.17413
G1 X117.758 Y90.936 E2.18879
G1 X117.903 Y91.584 E2.2418
G1 X117.952 Y91.941 E2.27056
G1 X117.955 Y91.987 E2.27424
G1 X117.945 Y92.371 E2.3049
G1 X117.939 Y92.428 E2.30948
G1 X117.871 Y92.786 E2.33857
G1 X117.8 Y93.039 E2.35954
G1 X117.662 Y93.694 E2.41298
G1 X117.607 Y94.371 E2.4672
G1 X117.606 Y94.669 E2.49098
G1 X117.548 Y95.594 E2.56497
G1 X117.559 Y95.595 E2.56585
G1 X117.602 Y96.251 E2.61832
G1 X117.658 Y96.596 E2.64622
G1 X117.694 Y96.774 E2.66072
G1 X117.735 Y97.139 E2.69004
G1 X117.738 Y97.227 E2.69707
G1 X117.725 Y97.552 E2.72303
G1 X117.701 Y97.741 E2.73824
G1 X117.642 Y98.114 E2.76838
G1 X117.579 Y98.783 E2.82202
G1 X117.606 Y99.489 E2.87842
G1 X117.632 Y99.821 E2.905
G1 X117.636 Y99.955 E2.9157
G1 X117.612 Y100.332 E2.94586
G1 X117.614 Y101.003 E2.99942
G1 X117.706 Y101.698 E3.05538
G1 X117.722 Y101.775 E3.06166
G1 X117.764 Y102.131 E3.09028
G1 X117.767 Y102.201 E3.09587
G1 X117.75 Y102.579 E3.12607
G1 X117.702 Y102.896 E3.15167
G1 X117.641 Y103.191 E3.17571
G1 X117.546 Y103.855 E3.22926
G1 X117.537 Y104.541 E3.28402
G1 X117.642 Y105.365 E3.35033
G1 X117.736 Y105.813 E3.38687
G1 X117.742 Y105.861 E3.39073
G1 X117.757 Y106.224 E3.41973
G1 X117.741 Y106.664 E3.45487
G1 X117.732 Y106.919 E3.47524
G1 X117.739 Y106.919 E3.4758
G1 X117.778 Y107.495 E3.52189
G1 X117.909 Y108.165 E3.57638
G1 X118.124 Y108.814 E3.63096
G1 X118.419 Y109.429 E3.6854
G1 X118.788 Y110.003 E3.73987
G1 X119.228 Y110.526 E3.79443
G1 X119.728 Y110.986 E3.84866
G1 X120.109 Y111.268 E3.8865
G1 X120.245 Y111.359 E3.89956
G1 X120.941 Y111.866 E3.9683
G1 X121.204 Y112.082 E3.99547
G1 X121.471 Y112.353 E4.02583
G1 X121.508 Y112.397 E4.03042
G1 X121.724 Y112.703 E4.06032
G1 X121.744 Y112.737 E4.06347
G1 X121.908 Y113.069 E4.09303
G1 X122.01 Y113.341 E4.11622
G1 X122.276 Y114.159 E4.18488
G1 X122.366 Y114.506 E4.21349
G1 X122.419 Y114.853 E4.24152
G1 X122.436 Y115.216 E4.27052
G1 X122.423 Y116.19 E4.34828
G1 X122.412 Y116.386 E4.36395
G1 X122.343 Y117.123 E4.42304
G1 X122.359 Y117.495 E4.45276
G1 X122.339 Y117.498 E4.45437
G1 X122.4 Y118.261 E4.51547
G1 X122.41 Y118.582 E4.54111
G1 X122.406 Y118.789 E4.55764
G1 X122.349 Y119.63 E4.62492
G1 X122.339 Y120.101 E4.66253
G1 X122.36 Y121.042 E4.73766
G1 X122.34 Y122.204 E4.83043
G1 X122.352 Y122.667 E4.8674
G1 X122.408 Y123.44 E4.92927
G1 X122.421 Y123.776 E4.95611
G1 X122.421 Y125.119 E5.06331
G1 X122.413 Y125.352 E5.08192
G1 X122.348 Y126.436 E5.16861
G1 X122.34 Y126.651 E5.18578
G1 X122.323 Y127.614 E5.26267
G1 X122.336 Y128.099 E5.30139
G1 X122.403 Y128.981 E5.372
G1 X122.409 Y129.224 E5.39141
G1 X122.401 Y129.526 E5.41552
G1 X122.368 Y129.891 E5.44478
G1 X122.324 Y130.562 E5.49845
G1 X122.385 Y131.372 E5.56329
G1 X122.407 Y131.537 E5.57658
G1 X122.401 Y131.923 E5.6074
G1 X122.396 Y131.975 E5.61157
G1 X122.339 Y132.313 E5.63893
G1 X122.261 Y132.599 E5.66259
G1 X121.998 Y133.407 E5.73042
G1 X121.867 Y133.741 E5.75906
G1 X121.696 Y134.071 E5.78873
G1 X121.664 Y134.122 E5.79353
G1 X121.449 Y134.411 E5.82229
G1 X121.399 Y134.466 E5.82822
G1 X121.153 Y134.706 E5.85565
G1 X120.931 Y134.883 E5.87832
G1 X120.228 Y135.396 E5.94779
G1 X120.178 Y135.429 E5.95257
G1 X119.647 Y135.837 E6.00602
G1 X119.162 Y136.318 E6.06055
G1 X118.743 Y136.856 E6.11498
G1 X118.394 Y137.443 E6.1695
G1 X118.122 Y138.07 E6.22405
G1 X117.931 Y138.726 E6.27859
G1 X117.824 Y139.405 E6.33346
G1 X117.82 Y140.343 E6.40834
G1 X117.853 Y140.735 E6.43974
G1 X117.853 Y140.774 E6.44285
G1 X117.823 Y141.163 E6.474
G1 X117.816 Y141.205 E6.47739
G1 X117.729 Y141.56 E6.50657
G1 X117.623 Y141.838 E6.53032
G1 X117.419 Y142.197 E6.56328
G1 X117.276 Y142.418 E6.58429
G1 X116.764 Y143.122 E6.65378
G1 X116.599 Y143.324 E6.6746
G1 X116.349 Y143.597 E6.70415
G1 X116.15 Y143.789 E6.72622
G1 X115.716 Y144.164 E6.77201
G1 X115.442 Y144.372 E6.79947
G1 X115.127 Y144.564 E6.82891
G1 X115.085 Y144.586 E6.8327
G1 X114.734 Y144.728 E6.86292
G1 X114.681 Y144.744 E6.86734
G1 X114.326 Y144.825 E6.89641
G1 X114.29 Y144.83 E6.89931
G1 X114.009 Y144.844 E6.92177
G1 X113.342 Y144.922 E6.97537
G1 X112.677 Y145.087 E7.03007
G1 X111.887 Y145.408 E7.09813
G1 X111.536 Y145.585 E7.12951
G1 X111.495 Y145.601 E7.13303
G1 X111.144 Y145.711 E7.16239
G1 X111.081 Y145.725 E7.16754
G1 X110.73 Y145.776 E7.19585
G1 X110.449 Y145.79 E7.21831
G1 X110.027 Y145.79 E7.252
G1 X109.664 Y145.769 E7.28102
G1 X109.295 Y145.708 E7.31088
G1 X109.244 Y145.695 E7.31508
G1 X108.888 Y145.575 E7.34507
G1 X108.666 Y145.46 E7.36502
G1 X107.785 Y145.09 E7.4413
G1 X107.228 Y144.914 E7.48793
G1 X107.18 Y144.895 E7.49205
G1 X106.833 Y144.719 E7.52311
G1 X106.802 Y144.7 E7.52601
G1 X106.503 Y144.48 E7.55564
G1 X106.309 Y144.312 E7.57613
G1 X105.778 Y143.908 E7.62939
G1 X105.272 Y143.609 E7.6763
G1 X105.013 Y143.475 E7.69958
G1 X104.962 Y143.443 E7.70439
G1 X104.665 Y143.221 E7.73399
G1 X104.632 Y143.192 E7.73749
G1 X104.371 Y142.92 E7.76758
G1 X104.348 Y142.892 E7.77048
G1 X104.127 Y142.57 E7.80165
G1 X104.113 Y142.546 E7.80387
G1 X103.938 Y142.172 E7.83683
G1 X103.614 Y141.585 E7.89035
G1 X103.211 Y141.03 E7.9451
G1 X102.589 Y140.395 E8.01606
G1 X102.555 Y140.366 E8.01962
G1 X102.299 Y140.106 E8.04875
G1 X102.273 Y140.075 E8.05198
G1 X102.051 Y139.761 E8.08267
G1 X102.017 Y139.703 E8.08804
G1 X101.867 Y139.398 E8.11517
G1 X101.767 Y139.139 E8.13734
G1 X101.558 Y138.494 E8.19146
G1 X101.47 Y138.155 E8.21941
G1 X101.416 Y137.798 E8.24824
G1 X101.411 Y137.743 E8.25264
G1 X101.417 Y137.355 E8.28362
G1 X101.421 Y137.306 E8.28754
G1 X101.48 Y136.962 E8.3154
G1 X101.55 Y136.702 E8.3369
G1 X101.761 Y136.051 E8.39153
G1 X101.888 Y135.727 E8.4193
G1 X102.061 Y135.391 E8.44947
G1 X102.097 Y135.335 E8.45479
G1 X102.31 Y135.051 E8.48312
G1 X102.364 Y134.989 E8.48969
G1 X102.668 Y134.694 E8.5235
G1 X103.118 Y134.196 E8.57708
G1 X103.508 Y133.636 E8.63155
G1 X103.824 Y133.031 E8.68604
G1 X104.062 Y132.391 E8.74054
G1 X104.217 Y131.722 E8.79536
G1 X104.289 Y130.853 E8.86496
G1 X104.289 Y115.122 E10.12068
G1 X104.298 Y114.864 E10.14129
G1 X104.343 Y114.535 E10.16779
G1 X104.363 Y114.437 E10.17578
G1 X104.45 Y113.772 E10.22931
G1 X104.452 Y113.089 E10.28383
G1 X104.368 Y112.412 E10.33829
G1 X104.201 Y111.754 E10.39248
G1 X104.16 Y111.646 E10.4017
G1 X104.011 Y111.166 E10.44182
G1 X103.999 Y111.112 E10.44624
G1 X103.95 Y110.756 E10.47492
G1 X103.948 Y110.717 E10.47804
G1 X103.958 Y110.333 E10.5087
G1 X103.964 Y110.276 E10.51328
G1 X104.032 Y109.921 E10.54213
G1 X104.056 Y109.833 E10.54941
G1 X104.203 Y109.411 E10.58508
G1 X104.383 Y108.765 E10.63861
G1 X104.482 Y108.09 E10.69307
G1 X104.495 Y107.403 E10.74792
G1 X104.479 Y107.16 E10.76736
G1 X104.338 Y106.195 E10.84521
G1 X104.324 Y105.93 E10.86639
G1 X104.324 Y104.97 E10.94302
G1 X104.345 Y104.605 E10.97221
G1 X104.405 Y104.24 E11.00173
G1 X104.473 Y103.969 E11.02404
G1 X104.594 Y103.309 E11.0776
G1 X104.632 Y102.628 E11.13204
G1 X104.583 Y101.942 E11.18694
G1 X104.393 Y101.086 E11.25693
G1 X104.345 Y100.911 E11.27142
G1 X104.296 Y100.558 E11.29987
G1 X104.294 Y100.519 E11.30298
G1 X104.304 Y100.135 E11.33365
G1 X104.313 Y100.049 E11.34055
G1 X104.369 Y99.743 E11.36538
G1 X104.427 Y99.523 E11.38354
G1 X104.557 Y98.866 E11.437
G1 X104.605 Y98.185 E11.4915
G1 X104.569 Y97.559 E11.54155
G1 X104.582 Y97.557 E11.5426
G1 X104.398 Y96.547 E11.62455
G1 X104.37 Y96.129 E11.65799
G1 X104.37 Y95.217 E11.73079
G1 X104.388 Y94.878 E11.75789
G1 X104.459 Y94.441 E11.79323
G1 X104.512 Y94.004 E11.82837
G1 X104.553 Y93.483 E11.87009
G1 X104.609 Y93.133 E11.89838
G1 X104.656 Y92.873 E11.91947
G1 X104.69 Y92.268 E11.96784
G1 X104.69 Y92.222 E11.97151
G1 X104.648 Y91.554 E12.02494
G1 X104.519 Y90.883 E12.07949
G1 X104.306 Y90.234 E12.13401
G1 X104.014 Y89.617 E12.1885
G1 X103.646 Y89.042 E12.24299
G1 X103.204 Y88.514 E12.29796
G1 X102.485 Y87.882 E12.37437
G1 X101.965 Y87.502 E12.42578
G1 X101.717 Y87.297 E12.45147
G1 X101.453 Y87.029 E12.4815
G1 X101.427 Y86.998 E12.48473
G1 X101.205 Y86.684 E12.51542
G1 X101.171 Y86.626 E12.52079
G1 X101.023 Y86.326 E12.54749
G1 X100.921 Y86.062 E12.57009
G1 X100.712 Y85.417 E12.62421
G1 X100.624 Y85.078 E12.65216
G1 X100.57 Y84.721 E12.68099
G1 X100.565 Y84.666 E12.68539
G1 X100.571 Y84.281 E12.71613
G1 X100.573 Y84.252 E12.71845
G1 X100.645 Y83.865 E12.74987
G1 X100.758 Y83.484 E12.7816
G1 X101.113 Y82.54 E12.8621
G1 X101.24 Y82.241 E12.88803
G1 X101.31 Y82.095 E12.90096
G1 X101.768 Y81.2 E12.98121
G1 X101.95 Y80.892 E13.00977
G1 X102.155 Y80.608 E13.03773
G1 X102.302 Y80.44 E13.05555
G1 X102.787 Y79.933 E13.11155
G1 X103.218 Y79.42 E13.16504
G1 X103.59 Y78.847 E13.21957
G1 X103.885 Y78.232 E13.27402
G1 X104.1 Y77.587 E13.32829
G1 X104.205 Y77.093 E13.3686
G1 X104.25 Y76.84 E13.38912
G1 X104.368 Y76.49 E13.4186
G1 X104.39 Y76.441 E13.42289
G1 X104.57 Y76.102 E13.45353
G1 X104.59 Y76.071 E13.45647
G0 F9750 X105.6 Y75.175
G1 F1462.5 X105.6 Y143.802 E18.93458
G0 F9750 X107.2 Y144.902
G1 F1462.5 X107.2 Y74.626 E24.54431
G0 F9750 X108.8 Y74.364
G1 F1462.5 X108.8 Y145.529 E30.22501
G0 F9750 X110.4 Y145.79
G1 F1462.5 X110.4 Y74.332 E35.92909
G0 F9750 X112 Y74.721
G1 F1462.5 X112 Y145.363 E41.56804
G0 F9750 X113.6 Y144.892
G1 F1462.5 X113.6 Y75.143 E47.13571
G0 F9750 X115.2 Y75.645
G1 F1462.5 X115.2 Y144.52 E52.63361
G0 F9750 X116.8 Y143.073
G1 F1462.5 X116.8 Y77.505 E57.86753
G1 F1500 E51.36753
G0 F9750 X117.749 Y76.973
G0 X117.389 Y76.171
G0 X116.724 Y75.358
G0 X116.144 Y74.925
G0 X115.304 Y74.543
G0 X112.549 Y73.73
G0 X110.399 Y73.252
G0 X109.087 Y73.244
G0 X106.685 Y73.661
G0 X105.062 Y74.252
G0 X104.432 Y74.67
G0 X103.72 Y75.457
G0 X103.376 Y76.101
G0 X103.072 Y77.305
G0 X104 Y77.887
G1 F1500 E57.86753
G1 F1462.5 X104 Y89.595 E58.80212
G0 F9750 X102.4 Y87.819
G1 F1462.5 X102.4 Y80.337 E59.39936
G0 F9750 X100.8 Y83.372
G1 F1462.5 X100.8 Y85.688 E59.58423
G1 F1500 E53.08423
G0 F9750 X99.918 Y86.417
G0 X103.039 Y109.515
G0 X104 Y110.088
G1 F1500 E59.58423
G1 F1462.5 X104 Y111.116 E59.66629
G1 F1500 E53.16629
G0 F9750 X102.961 Y111.348
G0 X99.501 Y84.7
G0 X99.518 Y84.109
G0 X99.757 Y83.123
G0 X100.359 Y81.617
G0 X103.72 Y75.457
G0 X104.432 Y74.67
G0 X105.062 Y74.252
G0 X106.685 Y73.661
G0 X109.087 Y73.244
G0 X110.399 Y73.252
G0 X112.684 Y73.763
G0 X115.529 Y74.625
G0 X116.261 Y74.997
G0 X117.048 Y75.694
G0 X117.451 Y76.276
G0 X117.83 Y77.228
G0 X118.288 Y79.111
G0 X118.924 Y84.441
G0 X119.353 Y108.916
G0 X118.4 Y109.39
G1 F1500 E59.66629
G1 F1462.5 X118.4 Y137.433 E61.90481
G0 F9750 X120 Y135.566
G1 F1462.5 X120 Y111.188 E63.85077
G0 F9750 X121.6 Y112.528
G1 F1462.5 X121.6 Y134.209 E65.58144
G1 F1500 E59.08144
G0 F9750 X122.273 Y135.086
G0 X118.328 Y142.752
G0 X117.404 Y144.021
G0 X116.401 Y144.979
G0 X115.528 Y145.555
G0 X114.517 Y145.873
G0 X111.276 Y146.773
G0 X109.999 Y146.854
G0 X108.945 Y146.718
G0 X106.319 Y145.652
G0 X103.895 Y143.959
G0 X103.487 Y143.52
G0 X101.08 Y140.21
G0 X100.764 Y139.495
G0 X100.425 Y138.36
G0 X100.353 Y137.308
G0 X100.529 Y136.399
G0 X100.927 Y135.269
G0 X101.092 Y134.965
G0 X103.04 Y132.084
G0 X104 Y132.557
G1 F1500 E65.58144
G1 F1462.5 X104 Y142.304 E66.35948
G0 F9750 X102.4 Y140.208
G1 F1462.5 X102.4 Y134.954 E66.77888
G1 F1500 E60.27888
G0 F300 X102.4 Y134.954 Z0.54
G0 F9750 X101.485 Y134.376
G0 X101.138 Y134.859
G0 X100.759 Y135.694
G0 X100.438 Y136.741
G0 X100.347 Y137.777
G0 X100.537 Y138.794
G0 X100.895 Y139.835
G0 X101.323 Y140.549
G0 X102.714 Y142.156
G0 X103.876 Y142.06
;TIME_ELAPSED:47.379031
;LAYER:-5
;TYPE:SUPPORT
G1 F1500 E66.77888
G1 F1462.5 X105.643 Y143.827 E67.02822
G1 X105.271 Y143.608 E67.0713
G1 X105.013 Y143.474 E67.10031
G1 X104.961 Y143.442 E67.1064
G1 X104.664 Y143.22 E67.1434
G1 X104.632 Y143.191 E67.14771
G1 X104.371 Y142.919 E67.18532
G1 X104.348 Y142.891 E67.18893
G1 X104.127 Y142.569 E67.2279
G1 X104.112 Y142.545 E67.23073
G1 X103.938 Y142.171 E67.27189
G0 F9750 X105.643 Y143.827
G1 F1462.5 X105.778 Y143.906 E67.28749
G1 X106.308 Y144.311 E67.35405
G1 X106.503 Y144.478 E67.37967
G1 X106.802 Y144.698 E67.41671
G1 X106.833 Y144.718 E67.42039
G1 X107.179 Y144.893 E67.45908
G1 X107.227 Y144.913 E67.46427
G1 X107.784 Y145.089 E67.52255
G1 X108.666 Y145.459 E67.61799
G1 X108.717 Y145.487 E67.62379
G1 X101.495 Y138.264 E68.64297
G1 X101.469 Y138.154 E68.65424
G1 X101.416 Y137.796 E68.69036
G1 X101.411 Y137.742 E68.69577
G1 X101.416 Y137.354 E68.73448
G1 X101.421 Y137.305 E68.7394
G1 X101.479 Y136.96 E68.77431
G1 X101.505 Y136.86 E68.78462
G1 X110.433 Y145.789 E70.04452
G1 X110.449 Y145.789 E70.04612
G1 X110.617 Y145.783 E70.06289
G1 X110.73 Y145.775 E70.0742
G1 X111.08 Y145.724 E70.10949
G1 X111.143 Y145.709 E70.11595
G1 X111.495 Y145.6 E70.15272
G1 X111.536 Y145.584 E70.15711
G1 X111.606 Y145.548 E70.16497
G1 X101.857 Y135.798 E71.54073
G1 X101.888 Y135.726 E71.54855
G1 X102.06 Y135.389 E71.5863
G1 X102.097 Y135.333 E71.593
G1 X102.309 Y135.05 E71.62828
G1 X102.363 Y134.988 E71.63648
G1 X102.413 Y134.94 E71.6434
G1 X112.593 Y145.12 E73.07991
G1 X112.676 Y145.086 E73.08886
G1 X113.342 Y144.921 E73.15732
G1 X113.759 Y144.872 E73.19921
G1 X103.101 Y134.213 E74.70324
G1 X103.118 Y134.195 E74.70571
G1 X103.508 Y133.635 E74.77381
G1 X103.654 Y133.353 E74.80549
G1 X114.943 Y144.642 E76.39849
G1 X115.085 Y144.585 E76.41376
G1 X115.126 Y144.563 E76.4184
G1 X115.442 Y144.371 E76.4553
