;FLAVOR:Marlin
;TIME:4789
;Filament used: 3.07139m
;Layer height: 0.2
;MINX:94.23
;MINY:68.393
;MINZ:0.24
;MAXX:129.853
;MAXY:151.618
;MAXZ:24.69
;Generated with Cura_SteamEngine 4.10.0
M140 S60
M105
M190 S60
M104 S200
M105
M109 S200
M82 ;absolute extrusion mode
; Ender 3 Custom Start G-code
G92 E0 ; Reset Extruder
G28 ; Home all axes
G1 Z2.0 F3000 ; Move Z Axis up little to prevent scratching of Heat Bed
G1 X0.1 Y20 Z0.3 F5000.0 ; Move to start position
G1 X0.1 Y200.0 Z0.3 F1500.0 E15 ; Draw the first line
G1 X0.4 Y200.0 Z0.3 F5000.0 ; Move to side a little
G1 X0.4 Y20 Z0.3 F1500.0 E30 ; Draw the second line
G92 E0 ; Reset Extruder
G1 Z2.0 F3000 ; Move Z Axis up little to prevent scratching of Heat Bed
G1 X5 Y20 Z0.3 F5000.0 ; Move over to prevent blob squish
G92 E0
G92 E0
G1 F1500 E-6.5
;LAYER_COUNT:118
;LAYER:-6
M107
G0 F9750 X97.184 Y72.435 Z0.24
;TYPE:SUPPORT-INTERFACE
G1 F1500 E0
G1 F1462.5 X97.524 Y71.996 E0.04432
G1 X97.744 Y71.739 E0.07133
G1 X97.827 Y71.65 E0.08104
G1 X98.134 Y71.339 E0.11593
G1 X98.342 Y71.141 E0.13885
G1 X98.565 Y70.966 E0.16148
G1 X98.63 Y70.919 E0.16788
G1 X99.271 Y70.48 E0.2299
G1 X99.45 Y70.369 E0.24671
G1 X99.712 Y70.225 E0.27057
G1 X99.894 Y70.141 E0.28658
G1 X100.146 Y70.053 E0.30788
G1 X100.327 Y69.999 E0.32296
G1 X101.989 Y69.566 E0.46006
G1 X102.343 Y69.494 E0.48889
G1 X102.672 Y69.462 E0.51528
G1 X102.855 Y69.457 E0.52989
G1 X109.88 Y69.46 E1.09066
G1 X116.875 Y69.471 E1.64903
G1 X117.106 Y69.482 E1.66749
G1 X117.378 Y69.507 E1.68929
G1 X117.786 Y69.594 E1.72259
G1 X117.999 Y69.66 E1.74039
G1 X119.982 Y70.343 E1.90781
G1 X120.184 Y70.423 E1.92516
G1 X120.5 Y70.568 E1.95291
G1 X120.705 Y70.693 E1.97207
G1 X120.978 Y70.896 E1.99923
G1 X121.178 Y71.061 E2.01993
G1 X121.746 Y71.575 E2.08108
G1 X121.936 Y71.757 E2.10208
G1 X122.108 Y71.952 E2.12283
G1 X122.171 Y72.03 E2.13084
G1 X122.491 Y72.447 E2.1728
G1 X122.654 Y72.686 E2.19589
G1 X122.855 Y73.009 E2.22626
G1 X123.013 Y73.277 E2.25109
G1 X123.108 Y73.446 E2.26657
G1 X123.328 Y73.874 E2.30498
G1 X123.438 Y74.111 E2.32584
G1 X123.843 Y75.058 E2.40805
G1 X123.888 Y75.17 E2.41769
G1 X124.271 Y76.23 E2.50766
G1 X124.606 Y77.388 E2.60388
G1 X124.687 Y77.73 E2.63194
G1 X124.726 Y77.978 E2.65198
G1 X124.738 Y78.08 E2.66018
G1 X124.836 Y79.196 E2.7496
G1 X124.851 Y79.542 E2.77725
G1 X124.854 Y84.065 E3.13829
G1 X124.849 Y84.732 E3.19154
G1 X124.839 Y85.006 E3.21342
G1 X124.827 Y85.12 E3.22257
G1 X124.727 Y85.925 E3.28733
G1 X124.682 Y86.186 E3.30847
G1 X124.518 Y86.899 E3.36687
G1 X124.422 Y87.241 E3.39522
G1 X124.344 Y87.469 E3.41446
G1 X124.186 Y87.909 E3.45178
G1 X124.001 Y88.554 E3.50534
G1 X123.896 Y89.229 E3.55987
G1 X123.877 Y89.911 E3.61433
G1 X123.946 Y90.59 E3.66881
G1 X124.099 Y91.256 E3.72336
G1 X124.334 Y91.897 E3.77786
G1 X124.65 Y92.503 E3.83241
G1 X125.037 Y93.063 E3.88675
G1 X125.495 Y93.573 E3.94147
G1 X125.552 Y93.632 E3.94802
G1 X126.017 Y94.025 E3.99661
G1 X126.101 Y94.1 E4.0056
G1 X127.36 Y95.274 E4.14302
G1 X127.594 Y95.52 E4.17012
G1 X127.82 Y95.813 E4.19966
G1 X127.966 Y96.058 E4.22242
G1 X128.132 Y96.475 E4.25825
G1 X128.215 Y96.728 E4.2795
G1 X128.673 Y98.448 E4.42159
G1 X128.755 Y98.852 E4.45449
G1 X128.787 Y99.124 E4.47635
G1 X128.792 Y99.216 E4.48371
G1 X128.812 Y101.409 E4.65877
G1 X128.801 Y101.749 E4.68593
G1 X128.708 Y103.086 E4.79291
G1 X128.705 Y103.751 E4.84599
G1 X128.783 Y105.078 E4.9521
G1 X128.784 Y105.362 E4.97477
G1 X128.764 Y105.733 E5.00443
G1 X128.736 Y105.974 E5.0238
G1 X128.471 Y107.545 E5.15097
G1 X128.438 Y107.699 E5.16354
G1 X128.376 Y107.953 E5.18442
G1 X128.34 Y108.081 E5.19503
G1 X127.969 Y109.243 E5.2924
G1 X127.842 Y109.577 E5.32092
G1 X127.663 Y109.926 E5.35223
G1 X127.647 Y109.951 E5.3546
G1 X127.413 Y110.268 E5.38605
G1 X127.372 Y110.316 E5.39109
G1 X127.133 Y110.55 E5.41779
G1 X126.925 Y110.719 E5.43918
G1 X125.93 Y111.444 E5.53746
G1 X125.631 Y111.636 E5.56582
G1 X125.59 Y111.657 E5.5695
G1 X125.012 Y111.994 E5.62291
G1 X124.471 Y112.41 E5.67738
G1 X123.986 Y112.891 E5.73191
G1 X123.566 Y113.43 E5.78645
G1 X123.218 Y114.017 E5.84093
G1 X122.946 Y114.643 E5.89541
G1 X122.755 Y115.299 E5.94995
G1 X122.649 Y115.97 E6.00417
G1 X122.626 Y116.485 E6.04533
G1 X122.627 Y116.804 E6.07079
G1 X122.672 Y117.473 E6.12431
G1 X122.802 Y118.143 E6.17879
G1 X123.017 Y118.791 E6.23329
G1 X123.312 Y119.406 E6.28774
G1 X123.681 Y119.981 E6.34228
G1 X124.121 Y120.503 E6.39677
G1 X124.623 Y120.966 E6.45129
G1 X125.175 Y121.359 E6.50538
G1 X125.482 Y121.536 E6.53366
G1 X125.786 Y121.709 E6.56158
G1 X125.994 Y121.862 E6.5822
G1 X126.118 Y121.969 E6.59527
G1 X127.329 Y123.081 E6.72651
G1 X127.568 Y123.327 E6.75389
G1 X127.81 Y123.635 E6.78515
G1 X127.953 Y123.876 E6.80752
G1 X128.119 Y124.283 E6.84261
G1 X128.197 Y124.512 E6.86192
G1 X128.681 Y126.239 E7.00509
G1 X128.756 Y126.578 E7.0328
G1 X128.798 Y126.963 E7.06372
G1 X128.801 Y127.057 E7.07123
G1 X128.791 Y127.346 E7.09431
G1 X128.773 Y127.492 E7.10605
G1 X128.378 Y130.112 E7.31755
G1 X128.306 Y130.443 E7.34459
G1 X128.188 Y130.811 E7.37544
G1 X128.177 Y130.837 E7.3777
G1 X128 Y131.18 E7.40851
G1 X127.978 Y131.215 E7.41181
G1 X127.747 Y131.526 E7.44273
G1 X127.72 Y131.556 E7.44595
G1 X127.459 Y131.811 E7.47508
G1 X127.229 Y131.995 E7.49859
G1 X126.264 Y132.697 E7.59385
G1 X125.975 Y132.882 E7.62124
G1 X125.602 Y133.069 E7.65455
G1 X125.024 Y133.407 E7.70799
G1 X124.483 Y133.823 E7.76247
G1 X123.998 Y134.305 E7.81705
G1 X123.578 Y134.843 E7.87153
G1 X123.23 Y135.431 E7.92608
G1 X122.958 Y136.057 E7.98056
G1 X122.768 Y136.713 E8.03508
G1 X122.662 Y137.383 E8.08922
G1 X122.639 Y137.882 E8.1291
G1 X122.642 Y143.613 E8.58657
G1 X122.625 Y144.021 E8.61917
G1 X122.594 Y144.344 E8.64507
G1 X122.549 Y144.681 E8.67221
G1 X122.493 Y144.976 E8.69618
G1 X122.398 Y145.363 E8.72799
G1 X122.334 Y145.579 E8.74597
G1 X122.208 Y145.954 E8.77755
G1 X122.059 Y146.311 E8.80843
G1 X121.928 Y146.586 E8.83274
G1 X121.737 Y146.951 E8.86563
G1 X121.575 Y147.216 E8.89042
G1 X121.348 Y147.549 E8.92259
G1 X121.187 Y147.766 E8.94416
G1 X121.001 Y147.996 E8.96777
G1 X120.796 Y148.225 E8.99231
G1 X120.578 Y148.449 E9.01726
G1 X120.544 Y148.476 E9.02072
G1 X120.356 Y148.659 E9.04166
G1 X120.15 Y148.842 E9.06366
G1 X120.035 Y148.933 E9.07537
G1 X119.795 Y149.115 E9.09941
G1 X119.472 Y149.338 E9.13074
G1 X119.215 Y149.498 E9.15491
G1 X118.996 Y149.62 E9.17492
G1 X118.857 Y149.696 E9.18756
G1 X118.62 Y149.815 E9.20873
G1 X118.349 Y149.936 E9.23242
G1 X118.116 Y150.029 E9.25245
G1 X117.751 Y150.156 E9.2833
G1 X117.431 Y150.252 E9.30997
G1 X117.035 Y150.35 E9.34253
G1 X116.661 Y150.424 E9.37296
G1 X116.394 Y150.463 E9.3945
G1 X115.967 Y150.502 E9.42873
G1 X115.633 Y150.519 E9.45543
G1 X115.478 Y150.522 E9.4678
G1 X110.324 Y150.522 E9.87922
G1 X109.919 Y150.507 E9.91157
G1 X109.572 Y150.478 E9.93936
G1 X109.229 Y150.436 E9.96695
G1 X108.974 Y150.39 E9.98763
G1 X108.626 Y150.317 E10.01601
G1 X108.368 Y150.247 E10.03735
G1 X108.102 Y150.168 E10.0595
G1 X107.92 Y150.106 E10.07485
G1 X107.375 Y149.893 E10.12156
G1 X107.202 Y149.815 E10.13671
G1 X106.921 Y149.678 E10.16166
G1 X106.69 Y149.549 E10.18278
G1 X106.358 Y149.348 E10.21376
G1 X106.21 Y149.249 E10.22798
G1 X105.887 Y149.017 E10.25972
G1 X105.732 Y148.896 E10.27542
G1 X105.443 Y148.649 E10.30576
G1 X105.209 Y148.425 E10.33162
G1 X104.988 Y148.203 E10.35663
G1 X104.805 Y147.996 E10.37868
G1 X104.614 Y147.77 E10.4023
G1 X104.469 Y147.583 E10.42119
G1 X104.275 Y147.311 E10.44786
G1 X104.117 Y147.07 E10.47086
G1 X103.925 Y146.743 E10.50113
G1 X103.808 Y146.518 E10.52138
G1 X103.689 Y146.273 E10.54312
G1 X103.522 Y145.881 E10.57713
G1 X103.422 Y145.62 E10.59944
G1 X103.354 Y145.412 E10.61691
G1 X103.251 Y145.062 E10.64603
G1 X103.199 Y144.846 E10.66377
G1 X103.02 Y144.2 E10.71728
G1 X102.666 Y143.401 E10.78704
G1 X102.518 Y143.13 E10.81168
G1 X102.4 Y142.847 E10.83616
G1 X102.316 Y142.544 E10.86126
G1 X102.255 Y142.182 E10.89056
G1 X102.25 Y142.13 E10.89473
G1 X102.249 Y141.76 E10.92427
G1 X102.252 Y141.727 E10.92691
G1 X102.317 Y141.33 E10.95902
G1 X102.41 Y140.992 E10.98701
G1 X102.508 Y140.754 E11.00755
G1 X102.596 Y140.557 E11.02478
G1 X103.078 Y139.565 E11.11281
G1 X103.235 Y139.282 E11.13865
G1 X103.466 Y138.955 E11.17061
G1 X103.492 Y138.924 E11.17384
G1 X103.755 Y138.657 E11.20375
G1 X103.789 Y138.628 E11.20732
G1 X104.104 Y138.399 E11.23841
G1 X104.122 Y138.388 E11.24009
G1 X104.482 Y138.21 E11.27215
G1 X104.865 Y138.071 E11.30467
G1 X105.265 Y137.936 E11.33837
G1 X105.265 Y137.931 E11.33877
G1 X105.516 Y137.842 E11.36003
G1 X106.126 Y137.534 E11.41458
G1 X106.692 Y137.152 E11.46908
G1 X107.205 Y136.702 E11.52356
G1 X107.657 Y136.191 E11.57801
G1 X108.042 Y135.626 E11.63259
G1 X108.352 Y135.018 E11.68707
G1 X108.584 Y134.37 E11.74201
G1 X108.768 Y133.405 E11.82043
G1 X108.777 Y133.319 E11.82733
G1 X108.836 Y132.975 E11.85519
G1 X108.914 Y132.689 E11.87885
G1 X109.321 Y131.438 E11.98387
G1 X109.488 Y130.787 E12.03751
G1 X109.575 Y130.051 E12.09667
G1 X109.588 Y129.797 E12.11698
G1 X109.638 Y129.419 E12.14741
G1 X109.74 Y129.013 E12.18083
G1 X109.771 Y128.92 E12.18865
G1 X109.939 Y128.271 E12.24217
G1 X110.025 Y127.593 E12.29672
G1 X110.025 Y126.914 E12.35092
G1 X109.974 Y126.444 E12.38866
G1 X109.922 Y126.108 E12.4158
G1 X109.885 Y125.376 E12.47431
G1 X109.775 Y124.746 E12.52536
G1 X109.719 Y124.512 E12.54456
G1 X109.664 Y124.154 E12.57348
G1 X109.66 Y124.099 E12.57788
G1 X109.666 Y123.706 E12.60925
G1 X109.67 Y123.659 E12.61302
G1 X109.693 Y122.991 E12.66637
G1 X109.633 Y122.353 E12.71752
G1 X109.594 Y122.075 E12.73993
G1 X109.6 Y121.695 E12.77027
G1 X109.603 Y121.659 E12.77315
G1 X109.617 Y121.194 E12.81029
G1 X109.639 Y121.194 E12.81204
G1 X109.589 Y120.503 E12.86735
G1 X109.595 Y120.119 E12.898
G1 X109.619 Y119.856 E12.91908
G1 X109.64 Y119.188 E12.97243
G1 X109.581 Y118.555 E13.02318
G1 X109.572 Y118.472 E13.02985
G1 X109.578 Y118.087 E13.06058
G1 X109.601 Y117.835 E13.08078
G1 X109.615 Y117.375 E13.11752
G1 X109.638 Y117.375 E13.11935
G1 X109.589 Y116.684 E13.17465
G1 X109.595 Y116.298 E13.20547
G1 X109.615 Y116.078 E13.2231
G1 X109.632 Y115.525 E13.26726
G1 X109.615 Y115.192 E13.29388
G1 X109.589 Y114.834 E13.32253
G1 X109.595 Y114.447 E13.35343
G1 X109.638 Y113.985 E13.39047
G1 X109.653 Y113.749 E13.40934
G1 X109.643 Y113.157 E13.45661
G1 X109.59 Y112.704 E13.49301
G1 X109.596 Y112.32 E13.52367
G1 X109.618 Y112.166 E13.53609
G1 X109.69 Y111.501 E13.58948
G1 X109.683 Y110.892 E13.6381
G1 X109.68 Y110.851 E13.64138
G1 X109.685 Y110.462 E13.67243
G1 X109.688 Y110.428 E13.67516
G1 X109.754 Y110.052 E13.70563
G1 X109.763 Y110.015 E13.70867
G1 X109.887 Y109.361 E13.7618
G1 X109.929 Y108.77 E13.8091
G1 X109.933 Y108.441 E13.83536
G1 X109.939 Y108.379 E13.84034
G1 X109.996 Y108.043 E13.86754
G1 X110.073 Y107.76 E13.89095
G1 X110.437 Y106.642 E13.98481
G1 X110.57 Y106.303 E14.01387
G1 X110.743 Y105.969 E14.0439
G1 X110.807 Y105.868 E14.05344
G1 X111.127 Y105.279 E14.10695
G1 X111.373 Y104.642 E14.16146
G1 X111.538 Y103.98 E14.21592
G1 X111.618 Y103.302 E14.27042
G1 X111.612 Y102.619 E14.32494
G1 X111.519 Y101.943 E14.37941
G1 X111.342 Y101.283 E14.43395
G1 X111.081 Y100.648 E14.48876
G1 X111.037 Y100.552 E14.49719
G1 X110.713 Y99.999 E14.54835
G1 X110.537 Y99.629 E14.58105
G1 X110.396 Y99.213 E14.61612
G1 X109.727 Y96.649 E14.82764
G1 X109.662 Y96.317 E14.85464
G1 X109.628 Y95.939 E14.88494
G1 X109.581 Y95.293 E14.93664
G1 X109.48 Y94.76 E14.97995
G1 X109.423 Y94.391 E15.00975
G1 X109.42 Y94.348 E15.01319
G1 X109.427 Y93.725 E15.06292
G1 X109.392 Y93.059 E15.11616
G1 X109.313 Y92.577 E15.15515
G1 X109.145 Y91.776 E15.22048
G1 X108.632 Y89.53 E15.40438
G1 X108.579 Y89.206 E15.43059
G1 X108.556 Y88.82 E15.46146
G1 X108.577 Y88.414 E15.49391
G1 X108.58 Y87.744 E15.54739
G1 X108.506 Y87.115 E15.59795
G1 X108.448 Y86.791 E15.62422
G1 X108.411 Y86.477 E15.64946
G1 X108.406 Y86.086 E15.68067
G1 X108.41 Y86.026 E15.68547
G1 X108.557 Y85.063 E15.76323
G1 X108.539 Y85.06 E15.76469
G1 X108.564 Y84.533 E15.80681
G1 X108.509 Y83.853 E15.86126
G1 X108.368 Y83.184 E15.91584
G1 X108.145 Y82.539 E15.97032
G1 X107.841 Y81.927 E16.02486
G1 X107.463 Y81.358 E16.07939
G1 X107.017 Y80.842 E16.13384
G1 X106.508 Y80.386 E16.18839
G1 X105.947 Y79.999 E16.24279
G1 X105.341 Y79.684 E16.29731
G1 X104.699 Y79.449 E16.35188
G1 X104.034 Y79.296 E16.40635
G1 X103.354 Y79.229 E16.46089
G1 X102.671 Y79.249 E16.51544
G1 X101.996 Y79.354 E16.56997
G1 X101.339 Y79.544 E16.62456
G1 X100.665 Y79.84 E16.68332
G1 X100.395 Y79.965 E16.70707
G1 X100.262 Y80.018 E16.7185
G1 X99.9 Y80.126 E16.74866
G1 X99.855 Y80.135 E16.75232
G1 X99.44 Y80.186 E16.7857
G1 X99.052 Y80.172 E16.81669
G1 X98.981 Y80.163 E16.8224
G1 X98.657 Y80.101 E16.84873
G1 X98.461 Y80.045 E16.865
G1 X97.249 Y79.647 E16.96683
G1 X96.929 Y79.52 E16.99432
G1 X96.602 Y79.349 E17.02377
G1 X96.544 Y79.313 E17.02922
G1 X96.257 Y79.097 E17.05789
G1 X96.226 Y79.069 E17.06123
G1 X95.953 Y78.783 E17.09279
G1 X95.927 Y78.752 E17.09602
G1 X95.726 Y78.46 E17.12432
G1 X95.583 Y78.203 E17.14779
G1 X95.459 Y77.9 E17.17393
G1 X95.354 Y77.548 E17.20325
G1 X95.347 Y77.513 E17.2061
G1 X95.296 Y77.112 E17.23837
G1 X95.295 Y77.092 E17.23996
G1 X95.309 Y76.708 E17.27064
G1 X95.319 Y76.633 E17.27668
G1 X95.387 Y76.296 E17.30412
G1 X95.474 Y76.008 E17.32813
G1 X95.751 Y75.243 E17.39308
G1 X95.891 Y74.895 E17.42302
G1 X96.174 Y74.228 E17.48086
G1 X96.447 Y73.658 E17.53131
G1 X96.584 Y73.393 E17.55512
G1 X96.742 Y73.113 E17.58079
G1 X97.017 Y72.677 E17.62193
G1 X97.184 Y72.435 E17.6454
G0 F9750 X97.6 Y71.907
G1 F1462.5 X97.6 Y79.762 E18.27242
G0 F9750 X99.2 Y80.177
G1 F1462.5 X99.2 Y70.528 E19.04265
G0 F9750 X100.8 Y69.875
G1 F1462.5 X100.8 Y79.781 E19.83339
G0 F9750 X102.4 Y79.292
G1 F1462.5 X102.4 Y69.488 E20.61599
G0 F9750 X104 Y69.458
G1 F1462.5 X104 Y79.292 E21.40098
G0 F9750 X105.6 Y79.818
G1 F1462.5 X105.6 Y69.459 E22.22788
G0 F9750 X107.2 Y69.459
G1 F1462.5 X107.2 Y81.053 E23.15336
G1 F1500 E16.65336
G0 F9750 X106.618 Y82.008
G0 X107.591 Y89.753
G0 X108.8 Y90.265
G1 F1500 E23.15336
G1 F1462.5 X108.8 Y69.46 E24.81411
G0 F9750 X110.4 Y69.461
G1 F1462.5 X110.4 Y99.224 E27.18992
G1 F1500 E20.68992
G0 F9750 X109.556 Y100.045
G0 X109.517 Y106.06
G0 X110.4 Y106.755
G1 F1500 E27.18992
G1 F1462.5 X110.4 Y150.522 E30.68359
G0 F9750 X112 Y150.522
G1 F1462.5 X112 Y69.464 E37.15399
G0 F9750 X113.6 Y69.466
G1 F1462.5 X113.6 Y150.522 E43.62423
G0 F9750 X115.2 Y150.522
G1 F1462.5 X115.2 Y69.469 E50.09423
G0 F9750 X116.8 Y69.471
G1 F1462.5 X116.8 Y150.397 E56.5541
G0 F9750 X118.4 Y149.914
G1 F1462.5 X118.4 Y69.799 E62.94922
G0 F9750 X120 Y70.351
G1 F1462.5 X120 Y148.96 E69.22413
G0 F9750 X121.6 Y147.176
G1 F1462.5 X121.6 Y71.443 E75.26947
G0 F9750 X123.2 Y73.625
G1 F1462.5 X123.2 Y114.059 E78.49708
G0 F9750 X124.8 Y112.158
G1 F1462.5 X124.8 Y92.721 E80.04863
G0 F9750 X126.4 Y94.379
G1 F1462.5 X126.4 Y111.102 E81.38353
G0 F9750 X128 Y109.146
G1 F1462.5 X128 Y96.144 E82.42141
G1 F1500 E75.92141
G0 F9750 X128.692 Y95.201
G0 X125.783 Y86.053
G0 X124.8 Y85.338
G1 F1500 E82.42141
G1 F1462.5 X124.8 Y78.787 E82.94434
G1 F1500 E76.44434
G0 F9750 X125.859 Y78.693
G0 X125.685 Y77.313
G0 X125.173 Y75.499
G0 X124.278 Y73.395
G0 X123.346 Y71.814
G0 X122.472 Y70.796
G0 X121.315 Y69.821
G0 X120.359 Y69.348
G0 X117.709 Y68.478
G0 X116.909 Y68.407
G0 X102.316 Y68.42
G0 X99.533 Y69.139
G0 X98.698 Y69.583
G0 X97.502 Y70.47
G0 X96.697 Y71.326
G0 X96.081 Y72.084
G0 X95.068 Y74.037
G0 X94.352 Y76.046
G0 X94.23 Y77.094
G0 X94.322 Y77.808
G0 X94.729 Y78.862
G0 X94.969 Y79.216
G0 X95.49 Y79.839
G0 X96 Y78.832
G1 F1500 E82.94434
G1 F1462.5 X96 Y74.638 E83.27912
G1 F1500 E76.77912
G0 F9750 X94.96 Y74.384
G0 X94.352 Y76.046
G0 X94.23 Y77.094
G0 X101.275 Y142.77
G0 X102.731 Y146.738
G0 X103.404 Y147.922
G0 X104.405 Y149.126
G0 X105.599 Y150.121
G0 X106.836 Y150.819
G0 X107.83 Y151.247
G0 X108.988 Y151.523
G0 X110.248 Y151.618
G0 X116.614 Y151.552
G0 X118.687 Y150.984
G0 X120.297 Y150.065
G0 X121.286 Y149.246
G0 X122.168 Y148.293
G0 X123.022 Y146.764
G0 X129.334 Y130.726
G0 X129.853 Y127.424
G0 X129.811 Y126.433
G0 X129.112 Y123.899
