;FLAVOR:Marlin
;TIME:2585
;Filament used: 2.22981m
;Layer height: 0.2
;MINX:83.789
;MINY:76.076
;MINZ:0.24
;MAXX:134.129
;MAXY:144.789
;MAXZ:8.89
;Generated with Cura_SteamEngine 4.10.0
M140 S60
M105
M190 S60
M104 S200
M105
M109 S200
M82 ;absolute extrusion mode
; Ender 3 Custom Start G-code
G92 E0 ; Reset Extruder
G28 ; Home all axes
G1 Z2.0 F3000 ; Move Z Axis up little to prevent scratching of Heat Bed
G1 X0.1 Y20 Z0.3 F5000.0 ; Move to start position
G1 X0.1 Y200.0 Z0.3 F1500.0 E15 ; Draw the first line
G1 X0.4 Y200.0 Z0.3 F5000.0 ; Move to side a little
G1 X0.4 Y20 Z0.3 F1500.0 E30 ; Draw the second line
G92 E0 ; Reset Extruder
G1 Z2.0 F3000 ; Move Z Axis up little to prevent scratching of Heat Bed
G1 X5 Y20 Z0.3 F5000.0 ; Move over to prevent blob squish
G92 E0
G92 E0
G1 F1500 E-6.5
;LAYER_COUNT:39
;LAYER:-6
M107
G0 F9750 X87.33 Y78.644 Z0.24
;TYPE:SUPPORT-INTERFACE
G1 F1500 E0
G1 F1462.5 X87.541 Y78.412 E0.02503
G1 X87.749 Y78.227 E0.04725
G1 X87.915 Y78.098 E0.06404
G1 X88.415 Y77.729 E0.11364
G1 X88.696 Y77.547 E0.14036
G1 X89.024 Y77.379 E0.16978
G1 X89.382 Y77.252 E0.2001
G1 X89.512 Y77.221 E0.21077
G1 X89.879 Y77.163 E0.24043
G1 X90.213 Y77.145 E0.26713
G1 X129.954 Y77.14 E3.43943
G1 X130.367 Y77.165 E3.47246
G1 X130.558 Y77.193 E3.48787
G1 X130.97 Y77.31 E3.52205
G1 X131.235 Y77.413 E3.54475
G1 X131.563 Y77.594 E3.57465
G1 X131.925 Y77.885 E3.61173
G1 X132.125 Y78.067 E3.63331
G1 X132.494 Y78.446 E3.67554
G1 X132.736 Y78.726 E3.70508
G1 X132.859 Y78.896 E3.72183
G1 X133.059 Y79.266 E3.7554
G1 X133.172 Y79.531 E3.7784
G1 X133.205 Y79.638 E3.78734
G1 X133.291 Y80.057 E3.82148
G1 X133.318 Y80.308 E3.84163
G1 X133.331 Y80.544 E3.8605
G1 X133.331 Y130.613 E7.85722
G1 X133.307 Y131.02 E7.88977
G1 X133.278 Y131.219 E7.90582
G1 X133.158 Y131.641 E7.94084
G1 X132.975 Y132.055 E7.97698
G1 X132.866 Y132.237 E7.99391
G1 X132.622 Y132.549 E8.02553
G1 X132.466 Y132.728 E8.04448
G1 X132.092 Y133.11 E8.08715
G1 X131.803 Y133.369 E8.11813
G1 X131.642 Y133.49 E8.13421
G1 X131.256 Y133.707 E8.16956
G1 X130.992 Y133.824 E8.19261
G1 X130.626 Y133.929 E8.223
G1 X130.211 Y133.977 E8.25635
G1 X129.93 Y133.994 E8.27882
G1 X116.099 Y133.994 E9.38287
G1 X115.431 Y134.036 E9.4363
G1 X114.76 Y134.165 E9.49084
G1 X114.111 Y134.378 E9.54537
G1 X113.494 Y134.67 E9.59985
G1 X112.923 Y135.035 E9.65395
G1 X112.608 Y135.285 E9.68605
G1 X112.388 Y135.467 E9.70884
G1 X112.08 Y135.657 E9.73773
G1 X111.856 Y135.766 E9.75762
G1 X111.597 Y135.87 E9.7799
G1 X110.989 Y136.152 E9.8334
G1 X110.411 Y136.515 E9.88788
G1 X109.883 Y136.948 E9.94239
G1 X109.414 Y137.444 E9.99688
G1 X109.011 Y137.996 E10.05143
G1 X108.681 Y138.594 E10.10595
G1 X108.43 Y139.228 E10.16038
G1 X108.259 Y139.895 E10.21535
G1 X108.214 Y140.367 E10.2532
G1 X108.181 Y140.367 E10.25583
G1 X108.16 Y141.042 E10.30974
G1 X108.149 Y141.209 E10.3231
G1 X108.091 Y141.584 E10.35339
G1 X108.081 Y141.626 E10.35683
G1 X107.96 Y141.994 E10.38776
G1 X107.946 Y142.026 E10.39054
G1 X107.767 Y142.37 E10.4215
G1 X107.743 Y142.408 E10.42509
G1 X107.524 Y142.705 E10.45454
G1 X107.351 Y142.896 E10.47511
G1 X107.114 Y143.107 E10.50044
G1 X106.81 Y143.327 E10.5304
G1 X106.766 Y143.354 E10.53452
G1 X106.441 Y143.516 E10.56351
G1 X106.385 Y143.538 E10.56831
G1 X106.027 Y143.648 E10.5982
G1 X105.968 Y143.662 E10.60304
G1 X105.626 Y143.711 E10.63062
G1 X105.346 Y143.724 E10.653
G1 X89.512 Y143.725 E11.91694
G1 X89.149 Y143.704 E11.94596
G1 X88.78 Y143.643 E11.97582
G1 X88.729 Y143.63 E11.98002
G1 X88.378 Y143.512 E12.00958
G1 X88.345 Y143.498 E12.01244
G1 X87.993 Y143.31 E12.04429
G1 X87.949 Y143.281 E12.0485
G1 X87.668 Y143.069 E12.0766
G1 X87.375 Y142.782 E12.10934
G1 X87.281 Y142.672 E12.12089
G1 X87.056 Y142.356 E12.15185
G1 X87.037 Y142.326 E12.15469
G1 X86.862 Y141.971 E12.18628
G1 X86.85 Y141.942 E12.18879
G1 X86.741 Y141.584 E12.21866
G1 X86.726 Y141.515 E12.22429
G1 X86.678 Y141.169 E12.25218
G1 X86.667 Y140.898 E12.27383
G1 X86.677 Y139.523 E12.38359
G1 X86.677 Y116.318 E14.23591
G1 X86.635 Y115.65 E14.28934
G1 X86.506 Y114.979 E14.34388
G1 X86.293 Y114.33 E14.39841
G1 X86.001 Y113.713 E14.4529
G1 X85.631 Y113.134 E14.50775
G1 X85.598 Y113.075 E14.51314
G1 X84.936 Y112.313 E14.59372
G1 X84.913 Y112.281 E14.59686
G1 X84.719 Y111.969 E14.62619
G1 X84.689 Y111.908 E14.63162
G1 X84.552 Y111.573 E14.66051
G1 X84.533 Y111.515 E14.66538
G1 X84.452 Y111.17 E14.69367
G1 X84.416 Y110.907 E14.71486
G1 X84.395 Y110.654 E14.73512
G1 X84.387 Y110.315 E14.76219
G1 X84.418 Y109.935 E14.79262
G1 X84.425 Y109.894 E14.79594
G1 X84.518 Y109.521 E14.82663
G1 X84.618 Y109.223 E14.85172
G1 X84.729 Y108.894 E14.87944
G1 X84.759 Y108.751 E14.8911
G1 X84.901 Y108.39 E14.92207
G1 X84.919 Y108.352 E14.92542
G1 X85.11 Y108.031 E14.95524
G1 X85.132 Y107.999 E14.95834
G1 X85.419 Y107.658 E14.99392
G1 X85.817 Y107.118 E15.04747
G1 X86.15 Y106.522 E15.10196
G1 X86.405 Y105.889 E15.15644
G1 X86.577 Y105.228 E15.21096
G1 X86.665 Y104.557 E15.26498
G1 X86.677 Y104.2 E15.29349
G1 X86.677 Y80.518 E17.18389
G1 X86.698 Y80.155 E17.21292
G1 X86.761 Y79.773 E17.24382
G1 X86.778 Y79.704 E17.2495
G1 X86.873 Y79.411 E17.27408
G1 X86.982 Y79.173 E17.29498
G1 X87.063 Y79.028 E17.30824
G1 X87.275 Y78.713 E17.33855
G1 X87.33 Y78.644 E17.34559
G1 F1500 E10.84559
G0 F9750 X86.494 Y77.985
G0 X95.925 Y86.988
G0 X95.098 Y86.315
G1 F1500 E17.34559
G1 F1462.5 X94.701 Y86.87 E17.40006
G1 X94.377 Y87.472 E17.45463
G1 X94.132 Y88.109 E17.50911
G1 X93.967 Y88.776 E17.56396
G1 X93.884 Y89.712 E17.63897
G1 X93.899 Y121.512 E20.17738
G1 X93.941 Y122.181 E20.23089
G1 X94.071 Y122.852 E20.28545
G1 X94.284 Y123.501 E20.33997
G1 X94.577 Y124.117 E20.39442
G1 X94.945 Y124.692 E20.44892
G1 X95.382 Y125.216 E20.50338
G1 X95.884 Y125.681 E20.558
G1 X96.439 Y126.078 E20.61247
G1 X97.039 Y126.402 E20.6669
G1 X97.677 Y126.648 E20.72149
G1 X98.344 Y126.813 E20.77633
G1 X99.285 Y126.897 E20.85175
G1 X104.361 Y126.893 E21.25694
G1 X105.428 Y126.879 E21.34212
G1 X108.241 Y126.879 E21.56666
G1 X120.798 Y126.859 E22.56902
G1 X121.467 Y126.816 E22.62253
G1 X122.137 Y126.686 E22.67701
G1 X122.786 Y126.472 E22.73156
G1 X123.403 Y126.178 E22.78612
G1 X123.976 Y125.81 E22.84048
G1 X124.5 Y125.371 E22.89504
G1 X124.964 Y124.87 E22.94955
G1 X125.361 Y124.315 E23.00402
G1 X125.685 Y123.713 E23.05859
G1 X125.931 Y123.076 E23.1131
G1 X126.094 Y122.408 E23.16799
G1 X126.177 Y121.475 E23.24276
G1 X126.167 Y89.706 E25.7787
G1 X126.125 Y89.038 E25.83213
G1 X125.995 Y88.368 E25.88661
G1 X125.783 Y87.719 E25.94111
G1 X125.49 Y87.102 E25.99563
G1 X125.122 Y86.527 E26.05012
G1 X124.684 Y86.003 E26.10464
G1 X124.184 Y85.539 E26.15909
G1 X123.628 Y85.14 E26.21372
G1 X123.028 Y84.816 E26.26815
G1 X122.39 Y84.57 E26.32273
G1 X121.722 Y84.405 E26.37766
G1 X120.784 Y84.321 E26.45283
G1 X103.855 Y84.323 E27.80418
G1 X99.266 Y84.328 E28.17049
G1 X98.597 Y84.371 E28.22401
G1 X97.926 Y84.501 E28.27856
G1 X97.277 Y84.714 E28.33309
G1 X96.661 Y85.007 E28.38754
G1 X96.087 Y85.376 E28.44201
G1 X95.563 Y85.813 E28.49647
G1 X95.098 Y86.315 E28.5511
G0 F9750 X96 Y85.449
G1 F1462.5 X96 Y77.144 E29.21404
G0 F9750 X94.4 Y77.144
G1 F1462.5 X94.4 Y87.43 E30.03511
G0 F9750 X97.6 Y84.608
G1 F1462.5 X97.6 Y77.144 E30.63092
G0 F9750 X99.2 Y77.143
G1 F1462.5 X99.2 Y84.333 E31.20486
G0 F9750 X100.8 Y84.327
G1 F1462.5 X100.8 Y77.143 E31.77831
G0 F9750 X102.4 Y77.143
G1 F1462.5 X102.4 Y84.325 E32.35161
G0 F9750 X104 Y84.323
G1 F1462.5 X104 Y77.143 E32.92475
G0 F9750 X105.6 Y77.143
G1 F1462.5 X105.6 Y84.323 E33.49789
G0 F9750 X107.2 Y84.323
G1 F1462.5 X107.2 Y77.142 E34.07111
G0 F9750 X108.8 Y77.142
G1 F1462.5 X108.8 Y84.323 E34.64433
G0 F9750 X110.4 Y84.323
G1 F1462.5 X110.4 Y77.142 E35.21754
G0 F9750 X112 Y77.142
G1 F1462.5 X112 Y84.323 E35.79076
G0 F9750 X113.6 Y84.322
G1 F1462.5 X113.6 Y77.142 E36.3639
G0 F9750 X115.2 Y77.141
G1 F1462.5 X115.2 Y84.322 E36.93712
G0 F9750 X116.8 Y84.322
G1 F1462.5 X116.8 Y77.141 E37.51034
G0 F9750 X118.4 Y77.141
G1 F1462.5 X118.4 Y84.322 E38.08356
G0 F9750 X120 Y84.322
G1 F1462.5 X120 Y77.141 E38.65677
G0 F9750 X121.6 Y77.141
G1 F1462.5 X121.6 Y84.394 E39.23574
G0 F9750 X123.2 Y84.908
G1 F1462.5 X123.2 Y77.14 E39.85582
G0 F9750 X124.8 Y77.14
G1 F1462.5 X124.8 Y86.141 E40.57431
G1 F1500 E34.07431
G0 F9750 X123.911 Y86.738
G0 X126.399 Y76.076
G0 X126.4 Y77.14
G1 F1500 E40.57431
G1 F1462.5 X126.4 Y133.994 E45.11265
G0 F9750 X124.8 Y133.994
G1 F1462.5 X124.8 Y125.047 E45.82684
G0 F9750 X123.2 Y126.274
G1 F1462.5 X123.2 Y133.994 E46.44308
G0 F9750 X121.6 Y133.994
G1 F1462.5 X121.6 Y126.79 E47.01813
G0 F9750 X120 Y126.86
G1 F1462.5 X120 Y133.994 E47.5876
G0 F9750 X118.4 Y133.994
G1 F1462.5 X118.4 Y126.862 E48.15691
G0 F9750 X116.8 Y126.865
G1 F1462.5 X116.8 Y133.994 E48.72597
G0 F9750 X115.2 Y134.081
G1 F1462.5 X115.2 Y126.867 E49.30183
G0 F9750 X113.6 Y126.87
G1 F1462.5 X113.6 Y134.62 E49.92047
G0 F9750 X112 Y135.696
G1 F1462.5 X112 Y126.873 E50.62476
G0 F9750 X110.4 Y126.875
G1 F1462.5 X110.4 Y136.525 E51.39506
G0 F9750 X108.8 Y138.379
G1 F1462.5 X108.8 Y126.878 E52.31312
G0 F9750 X107.2 Y126.879
G1 F1462.5 X107.2 Y143.031 E53.60244
G0 F9750 X105.6 Y143.713
G1 F1462.5 X105.6 Y126.879 E54.94621
G0 F9750 X104 Y126.893
G1 F1462.5 X104 Y143.725 E56.28981
G0 F9750 X102.4 Y143.725
G1 F1462.5 X102.4 Y126.894 E57.63333
G0 F9750 X100.8 Y126.895
G1 F1462.5 X100.8 Y143.725 E58.97678
G0 F9750 X99.2 Y143.725
G1 F1462.5 X99.2 Y126.89 E60.32062
G0 F9750 X97.6 Y126.619
G1 F1462.5 X97.6 Y143.725 E61.68609
G0 F9750 X96 Y143.725
G1 F1462.5 X96 Y125.764 E63.11982
G0 F9750 X94.4 Y123.745
G1 F1462.5 X94.4 Y143.725 E64.71471
G0 F9750 X92.8 Y143.725
G1 F1462.5 X92.8 Y77.144 E70.02949
G0 F9750 X91.2 Y77.144
G1 F1462.5 X91.2 Y143.725 E75.34427
G0 F9750 X89.6 Y143.725
G1 F1462.5 X89.6 Y77.207 E80.65403
G0 F9750 X88 Y78.035
G1 F1462.5 X88 Y143.313 E85.8648
G1 F1500 E79.3648
G0 F9750 X86.989 Y143.889
G0 X86.436 Y143.32
G0 X85.891 Y142.409
G0 X85.677 Y141.7
G0 X85.635 Y141.247
G0 X85.473 Y115.245
G0 X86.4 Y114.656
G1 F1500 E85.8648
G1 F1462.5 X86.4 Y105.901 E86.56366
G0 F9750 X84.8 Y108.646
G1 F1462.5 X84.8 Y112.099 E86.8393
G1 F1500 E80.3393
G0 F9750 X84.104 Y112.961
G0 X85.677 Y141.7
G0 X85.891 Y142.409
G0 X86.436 Y143.32
G0 X86.989 Y143.889
G0 X87.877 Y144.454
G0 X88.565 Y144.687
G0 X89.484 Y144.789
G0 X105.741 Y144.77
G0 X106.645 Y144.563
G0 X128 Y135.059
G0 X128 Y133.994
G1 F1500 E86.8393
G1 F1462.5 X128 Y77.14 E91.37763
G0 F9750 X129.6 Y77.14
G1 F1462.5 X129.6 Y133.994 E95.91596
G0 F9750 X131.2 Y133.732
G1 F1462.5 X131.2 Y77.4 E100.41262
G0 F9750 X132.8 Y78.815
G1 F1462.5 X132.8 Y132.322 E104.68378
G0 F300 X132.8 Y132.322 Z0.54
G0 F9750 X130.993 Y133.822
;TIME_ELAPSED:69.843870
;LAYER:-5
;TYPE:SUPPORT
G1 F1462.5 X123.366 Y126.195 E105.76004
G1 X123.402 Y126.177 E105.76405
G1 X123.976 Y125.809 E105.83209
G1 X124.204 Y125.618 E105.86176
G1 X131.883 Y133.297 E106.94535
G1 X131.967 Y133.225 E106.95639
G1 X132.092 Y133.109 E106.97341
G1 X132.465 Y132.727 E107.02668
G1 X132.588 Y132.588 E107.0452
G1 X124.918 Y124.918 E108.12752
G1 X124.963 Y124.87 E108.13409
G1 X125.36 Y124.315 E108.20217
G1 X125.488 Y124.074 E108.2294
G1 X133.131 Y131.717 E109.30791
G1 X133.157 Y131.641 E109.31593
G1 X133.276 Y131.219 E109.35968
G1 X133.306 Y131.019 E109.37986
G1 X133.322 Y130.823 E109.39948
G1 X133.329 Y130.613 E109.42044
G1 X133.33 Y130.502 E109.43152
G1 X125.922 Y123.093 E110.47694
G1 X125.93 Y123.076 E110.47881
G1 X126.093 Y122.407 E110.54752
G1 X126.138 Y121.896 E110.5987
G1 X133.33 Y129.087 E111.6135
G1 X133.33 Y127.673 E111.75459
G1 X126.175 Y120.518 E112.76424
G1 X126.174 Y119.103 E112.90543
G1 X133.33 Y126.259 E113.91522
G1 X133.33 Y124.845 E114.05631
G1 X126.174 Y117.689 E115.0661
G1 X126.174 Y116.274 E115.20729
G1 X133.33 Y123.431 E116.21715
G1 X133.33 Y122.016 E116.35833
G1 X126.174 Y114.86 E117.36812
G1 X126.173 Y113.445 E117.50931
G1 X133.33 Y120.602 E118.51924
G1 X133.33 Y119.188 E118.66033
G1 X126.172 Y112.03 E119.6704
G1 X126.172 Y110.616 E119.81149
G1 X133.33 Y117.774 E120.82156
G1 X133.33 Y116.36 E120.96265
G1 X126.171 Y109.201 E121.97287
G1 X126.171 Y107.786 E122.11406
G1 X133.33 Y114.945 E123.12427
G1 X133.33 Y113.531 E123.26536
G1 X126.171 Y106.372 E124.27557
G1 X126.17 Y104.957 E124.41676
G1 X133.33 Y112.117 E125.42711
G1 X133.33 Y110.703 E125.5682
G1 X126.17 Y103.543 E126.57855
G1 X126.169 Y102.128 E126.71974
G1 X133.33 Y109.289 E127.73024
G1 X133.33 Y107.874 E127.87143
G1 X126.169 Y100.713 E128.88192
G1 X126.169 Y99.299 E129.02301
G1 X133.33 Y106.46 E130.03351
G1 X133.33 Y105.046 E130.1746
G1 X126.168 Y97.884 E131.18523
G1 X126.167 Y96.469 E131.32642
G1 X133.33 Y103.632 E132.3372
G1 X133.33 Y102.217 E132.47839
G1 X126.167 Y95.054 E133.48916
G1 X126.166 Y93.64 E133.63025
G1 X133.33 Y100.803 E134.6411
G1 X133.33 Y99.389 E134.78219
G1 X126.166 Y92.225 E135.79311
G1 X126.166 Y90.81 E135.9343
G1 X133.33 Y97.975 E136.94528
G1 X133.33 Y96.561 E137.08637
G1 X126.145 Y89.375 E138.10033
G1 X126.124 Y89.038 E138.13402
G1 X125.994 Y88.367 E138.20221
G1 X125.782 Y87.718 E138.27034
G1 X125.673 Y87.489 E138.29565
G1 X133.33 Y95.146 E139.37613
G1 X133.33 Y93.732 E139.51722
G1 X116.739 Y77.141 E141.85839
G1 X118.154 Y77.141 E141.99958
G1 X133.33 Y92.318 E144.14115
G1 X133.33 Y90.904 E144.28224
G1 X119.567 Y77.141 E146.22434
G1 X120.981 Y77.141 E146.36543
G1 X133.33 Y89.49 E148.10801
G1 X133.33 Y88.075 E148.2492
G1 X122.395 Y77.141 E149.79218
G1 X123.81 Y77.141 E149.93337
G1 X133.33 Y86.661 E151.27674
G1 X133.33 Y85.247 E151.41783
G1 X125.223 Y77.14 E152.56182
G1 X126.637 Y77.14 E152.70291
G1 X133.33 Y83.833 E153.64736
G1 X133.33 Y82.418 E153.78855
G1 X128.052 Y77.14 E154.53333
G1 X129.466 Y77.14 E154.67442
G1 X133.33 Y81.004 E155.21967
G1 X133.33 Y80.543 E155.26567
G1 X133.317 Y80.308 E155.28916
G1 X133.29 Y80.056 E155.31445
G1 X133.204 Y79.637 E155.35712
G1 X133.17 Y79.531 E155.36823
G1 X133.14 Y79.441 E155.3777
G1 X133.105 Y79.364 E155.38614
G1 X131.094 Y77.353 E155.66991
G1 X131.139 Y77.369 E155.67468
G1 X131.234 Y77.413 E155.68512
G1 X131.404 Y77.5 E155.70418
G1 X131.562 Y77.594 E155.72252
G1 X131.924 Y77.884 E155.7688
G1 X132.124 Y78.067 E155.79585
G1 X132.493 Y78.446 E155.84863
G1 X132.615 Y78.58 E155.86672
G1 X132.735 Y78.726 E155.88557
G1 X132.858 Y78.896 E155.90651
G1 X133.058 Y79.265 E155.94839
G1 F1500 E149.44839
G0 F9750 X134.129 Y79.039
G0 X124.712 Y87.945
G0 X125.673 Y87.489
G1 F1500 E155.94839
G1 F1462.5 X125.489 Y87.102 E155.99115
G1 X125.121 Y86.527 E156.05926
G1 X124.683 Y86.003 E156.12741
G1 X124.183 Y85.538 E156.19554
G1 X123.627 Y85.139 E156.26383
G1 X123.026 Y84.816 E156.33191
G0 F9750 X122.982 Y84.799
G1 F1462.5 X115.325 Y77.141 E157.41246
G1 X113.911 Y77.141 E157.55355
G1 X121.12 Y84.35 E158.57082
G1 X120.783 Y84.321 E158.60457
G1 X119.676 Y84.321 E158.71503
G1 X112.497 Y77.142 E159.72806
G1 X111.083 Y77.142 E159.86915
G1 X118.262 Y84.321 E160.88218
G1 X116.847 Y84.321 E161.02337
G1 X109.669 Y77.142 E162.03634
G1 X108.255 Y77.142 E162.17743
G1 X115.433 Y84.321 E163.19039
G1 X114.019 Y84.321 E163.33148
G1 X106.841 Y77.143 E164.34437
G1 X105.427 Y77.143 E164.48546
G1 X112.605 Y84.321 E165.49836
G1 X111.191 Y84.321 E165.63945
G1 X104.013 Y77.143 E166.65234
G1 X102.599 Y77.143 E166.79343
G1 X109.777 Y84.321 E167.80632
G1 X108.363 Y84.321 E167.94741
G1 X101.185 Y77.143 E168.9603
G1 X99.771 Y77.143 E169.10139
G1 X106.949 Y84.321 E170.11429
G1 X105.534 Y84.321 E170.25548
G1 X98.357 Y77.143 E171.2683
G1 X96.942 Y77.143 E171.40949
G1 X104.12 Y84.321 E172.42238
G1 X103.854 Y84.322 E172.44892
G1 X102.707 Y84.323 E172.56337
G1 X95.529 Y77.144 E173.57634
G1 X94.115 Y77.144 E173.71743
G1 X101.295 Y84.325 E174.73067
G1 X99.883 Y84.326 E174.87156
G1 X92.7 Y77.144 E175.88509
G1 X91.286 Y77.144 E176.02618
G1 X98.526 Y84.384 E177.04782
G1 X97.925 Y84.501 E177.10892
G1 X97.401 Y84.673 E177.16395
G1 X89.89 Y77.162 E178.22383
G1 X89.878 Y77.163 E178.22503
G1 X89.511 Y77.221 E178.2621
G1 X89.381 Y77.252 E178.27544
G1 X89.251 Y77.288 E178.2889
G1 X89.154 Y77.324 E178.29922
G1 X89.023 Y77.378 E178.31336
G1 X88.804 Y77.491 E178.33795
G1 X96.452 Y85.139 E179.41717
G1 X96.085 Y85.376 E179.46076
